X: 1
T:Farewell to Whisky
R:Slow air
O:Scotland
M:4/4
C:Niel Gow
K:G
GE|\
D2G2 GFGB|A2E2 E2GE|D2G2 BAGB|d2B2 B2d2|\
e2fg edcB|cBAG A2B2|D2GA BAGA|B2G2 G2::
Bc|\
d2B2 g2B2|cBAG A2Bc|d2B2 g2d2|e2g2 g2d2|\
e2fg edcB|cBAG A2B2|D2GA BAGA|B2G2 G2:|
